svgs/sharp-regular/x-ray.svg

<svg xmlns="http://www.w3.org/2000/svg" viewBox="0 0 512 512"><!--! Font Awesome Pro 6.6.0 by @fontawesome - https://fontawesome.com License - https://fontawesome.com/license (Commercial License) Copyright 2024 Fonticons, Inc. --><path d="M24 32L0 32 0 80l24 0 8 0 0 352-8 0L0 432l0 48 24 0 32 0 400 0 32 0 24 0 0-48-24 0-8 0 0-352 8 0 24 0 0-48-24 0-32 0L56 32 24 32zM80 432L80 80l352 0 0 352L80 432zM272 96l-32 0 0 16 0 32-64 0-16 0 0 32 16 0 64 0 0 32-96 0-16 0 0 32 16 0 96 0 0 54.6L181.3 272 128 272l0 57.6L170.7 384l170.7 0L384 329.6l0-57.6-53.3 0L272 294.6l0-54.6 96 0 16 0 0-32-16 0-96 0 0-32 64 0 16 0 0-32-16 0-64 0 0-32 0-16zM208 320a16 16 0 1 1 0 32 16 16 0 1 1 0-32zm80 16a16 16 0 1 1 32 0 16 16 0 1 1 -32 0z"/></svg>

<svg xmlns="http://www.w3.org/2000/svg" viewBox="0 0 512 512"><!--! Font Awesome Pro 6.5.2 by @fontawesome - https://fontawesome.com License - https://fontawesome.com/license (Commercial License) Copyright 2024 Fonticons, Inc. --><path d="M24 32H0V80H24h8V432H24 0v48H24 56 456h32 24V432H488h-8V80h8 24V32H488 456 56 24zM80 432V80H432V432H80zM272 96H240v16 32H176 160v32h16 64v32H144 128v32h16 96v54.6L181.3 272H128v57.6L170.7 384H341.3L384 329.6V272H330.7L272 294.6V240h96 16V208H368 272V176h64 16V144H336 272V112 96zM208 320a16 16 0 1 1 0 32 16 16 0 1 1 0-32zm80 16a16 16 0 1 1 32 0 16 16 0 1 1 -32 0z"/></svg>
